; generated by Slic3r 1.0.1 on 2023-01-26 at 14:28:16

; layer_height = 0.2
; perimeters = 2
; top_solid_layers = 2
; bottom_solid_layers = 2
; fill_density = 0.9
; perimeter_speed = 23
; infill_speed = 23
; travel_speed = 200
; nozzle_diameter = 0.254
; filament_diameter = 1
; extrusion_multiplier = 0.004
; perimeters extrusion width = 0.25mm
; infill extrusion width = 0.27mm
; solid infill extrusion width = 0.27mm
; top infill extrusion width = 0.27mm
; first layer extrusion width = 0.40mm

G21 ; set units to millimeters
M104 S220 ; set temperature
G21 ; set units to millimeters
M302 S0
M140 S0 ; kill bed temperature
G28 ;home all axis
G1 Z100 F2000 ; lift nozzle
G1 X100 F2000
G1 Y170 F2000
G1 E0.6 F0.5
G4 P30000 ; delay 30 seconds
G1 X100 F2000
G1 Y100 F2000
M92 E3720
M203 E0.425 ; 200x retraction speed in mm/sec
M107 ; turns fan off
G90 ; use absolute coordinates
G92 E0
M82 ; use absolute distances for extrusion
M109 S220 ; wait for temperature to be reached
G90 ; use absolute coordinates
G92 E0
M82 ; use absolute distances for extrusion
M106 S153
G1 Z15.700 F12000.000
G1 F60.000 E-0.17000
G92 E0
G1 X145.346 Y63.254 F12000.000
G1 E0.17000 F60.000
G1 X145.620 Y62.984 E0.17015 F1380
G1 X145.538 Y62.901 E0.17020 F1380
G1 X145.834 Y62.653 E0.17035 F1380
G1 X145.757 Y62.576 E0.17039 F1380
G1 X146.005 Y62.279 E0.17054 F1380
G1 X146.081 Y62.356 E0.17059 F1380
G1 X146.356 Y62.086 E0.17074 F1380
G1 X146.277 Y62.007 E0.17078 F1380
G1 X146.571 Y61.756 E0.17093 F1380
G1 X146.651 Y61.836 E0.17098 F1380
G1 X146.897 Y61.538 E0.17113 F1380
G1 X146.978 Y61.619 E0.17117 F1380
G1 X147.252 Y61.348 E0.17132 F1380
G1 X147.337 Y61.434 E0.17137 F1380
G1 X147.636 Y61.188 E0.17152 F1380
G1 X147.723 Y61.275 E0.17157 F1380
G1 X148.056 Y61.063 E0.17173 F1380
G1 X148.142 Y61.149 E0.17177 F1380
G1 X148.517 Y60.980 E0.17194 F1380
G1 X148.617 Y61.079 E0.17199 F1380
G1 X149.026 Y60.944 E0.17216 F1380
G1 X149.144 Y61.062 E0.17222 F1380
G1 X149.623 Y60.996 E0.17241 F1380
G1 X149.761 Y61.135 E0.17249 F1380
G1 X150.356 Y61.185 E0.17273 F1380
G1 X150.554 Y61.382 E0.17283 F1380
G1 X151.665 Y61.949 F12000.000
G1 X152.081 Y62.365 E0.17307 F1380
G1 X152.614 Y63.442 F12000.000
G1 X152.817 Y63.646 E0.17318 F1380
G1 X152.869 Y64.243 E0.17341 F1380
G1 X153.005 Y64.379 E0.17349 F1380
G1 X152.943 Y64.861 E0.17368 F1380
G1 X153.051 Y64.969 E0.17374 F1380
G1 X152.924 Y65.386 E0.17391 F1380
G1 X153.021 Y65.483 E0.17397 F1380
G1 X152.844 Y65.851 E0.17413 F1380
G1 X152.938 Y65.945 E0.17418 F1380
G1 X152.723 Y66.275 E0.17433 F1380
G1 X152.813 Y66.365 E0.17438 F1380
G1 X152.569 Y66.665 E0.17453 F1380
G1 X152.654 Y66.751 E0.17458 F1380
G1 X152.384 Y67.025 E0.17473 F1380
G1 X152.465 Y67.106 E0.17478 F1380
G1 X152.160 Y67.346 E0.17493 F1380
G1 X152.244 Y67.429 E0.17498 F1380
G1 X151.995 Y67.725 E0.17513 F1380
G1 X151.915 Y67.645 E0.17517 F1380
G1 X151.648 Y67.923 E0.17532 F1380
G1 X151.722 Y67.997 E0.17536 F1380
G1 X151.424 Y68.243 E0.17552 F1380
G1 X151.343 Y68.162 E0.17556 F1380
G1 X151.100 Y68.464 E0.17571 F1380
G1 X151.017 Y68.381 E0.17576 F1380
G1 X150.748 Y68.657 E0.17591 F1380
G1 X150.667 Y68.575 E0.17595 F1380
G1 X150.365 Y68.818 E0.17611 F1380
G1 X150.273 Y68.726 E0.17616 F1380
G1 X149.945 Y68.942 E0.17631 F1380
G1 X149.846 Y68.843 E0.17637 F1380
G1 X149.483 Y69.025 E0.17653 F1380
G1 X149.376 Y68.918 E0.17659 F1380
G1 X148.967 Y69.054 E0.17675 F1380
G1 X148.848 Y68.934 E0.17682 F1380
G1 X148.368 Y69.000 E0.17701 F1380
G1 X148.228 Y68.860 E0.17709 F1380
G1 X147.646 Y68.822 E0.17732 F1380
G1 X147.441 Y68.617 E0.17743 F1380
G1 X146.264 Y67.985 F12000.000
G1 X146.000 Y67.720 E0.17758 F1380
G1 X145.370 Y66.546 F12000.000
G1 X145.185 Y66.361 E0.17768 F1380
G1 X145.141 Y65.772 E0.17791 F1380
G1 X145.000 Y65.632 E0.17799 F1380
G1 X145.068 Y65.155 E0.17818 F1380
G1 X144.951 Y65.037 E0.17824 F1380
G1 X145.083 Y64.625 E0.17841 F1380
G1 X144.977 Y64.520 E0.17847 F1380
G1 X145.154 Y64.152 E0.17863 F1380
G1 X145.060 Y64.057 E0.17869 F1380
G1 X145.268 Y63.721 E0.17884 F1380
G1 X145.185 Y63.638 E0.17889 F1380
G1 X145.430 Y63.339 E0.17904 F1380
G1 X145.346 Y63.254 E0.17908 F1380
G1 X145.807 Y63.410 F12000.000
G1 X146.096 Y62.923 E0.17930 F1380
G1 X146.430 Y62.522 E0.17949
G1 X146.818 Y62.174 E0.17969
G1 X147.253 Y61.887 E0.17988
G1 X147.725 Y61.665 E0.18008
G1 X148.224 Y61.515 E0.18028
G1 X148.729 Y61.441 E0.18047
G1 X149.000 Y61.431 E0.18057
G1 X149.271 Y61.441 E0.18067
G1 X149.776 Y61.515 E0.18086
G1 X150.275 Y61.665 E0.18106
G1 X150.747 Y61.887 E0.18125
G1 X151.144 Y62.149 E0.18143
G1 X151.570 Y62.522 E0.18165
G1 X151.904 Y62.923 E0.18184
G1 X152.175 Y63.368 E0.18204
G1 X152.379 Y63.847 E0.18223
G1 X152.511 Y64.352 E0.18243
G1 X152.568 Y64.870 E0.18262
G1 X152.549 Y65.390 E0.18282
G1 X152.454 Y65.903 E0.18302
G1 X152.286 Y66.396 E0.18321
G1 X152.048 Y66.860 E0.18341
G1 X151.744 Y67.284 E0.18360
G1 X151.382 Y67.659 E0.18380
G1 X150.970 Y67.978 E0.18399
G1 X150.515 Y68.233 E0.18419
G1 X150.029 Y68.419 E0.18439
G1 X149.520 Y68.532 E0.18458
G1 X149.000 Y68.570 E0.18478
G1 X148.480 Y68.532 E0.18497
G1 X147.971 Y68.419 E0.18517
G1 X147.485 Y68.233 E0.18537
G1 X147.030 Y67.978 E0.18556
G1 X146.618 Y67.659 E0.18576
G1 X146.256 Y67.284 E0.18595
G1 X145.952 Y66.860 E0.18615
G1 X145.714 Y66.396 E0.18634
G1 X145.546 Y65.903 E0.18654
G1 X145.460 Y65.436 E0.18672
G1 X145.432 Y64.870 E0.18693
G1 X145.489 Y64.351 E0.18713
G1 X145.621 Y63.847 E0.18732
G1 X145.785 Y63.461 E0.18748
G1 X146.146 Y63.554 F12000.000
G1 X146.397 Y63.138 E0.18766 F1380
G1 X146.696 Y62.779 E0.18784
G1 X147.044 Y62.467 E0.18801
G1 X147.434 Y62.209 E0.18819
G1 X147.857 Y62.011 E0.18836
G1 X148.304 Y61.876 E0.18854
G1 X148.763 Y61.809 E0.18871
G1 X149.000 Y61.800 E0.18880
G1 X149.237 Y61.809 E0.18889
G1 X149.696 Y61.876 E0.18907
G1 X150.143 Y62.011 E0.18924
G1 X150.566 Y62.209 E0.18942
G1 X150.940 Y62.456 E0.18959
G1 X151.304 Y62.779 E0.18977
G1 X151.603 Y63.138 E0.18994
G1 X151.846 Y63.537 E0.19012
G1 X152.029 Y63.967 E0.19029
G1 X152.147 Y64.419 E0.19047
G1 X152.198 Y64.883 E0.19065
G1 X152.181 Y65.350 E0.19082
G1 X152.096 Y65.810 E0.19100
G1 X151.946 Y66.252 E0.19117
G1 X151.732 Y66.667 E0.19135
G1 X151.460 Y67.047 E0.19152
G1 X151.136 Y67.384 E0.19170
G1 X150.766 Y67.669 E0.19187
G1 X150.358 Y67.898 E0.19205
G1 X149.922 Y68.065 E0.19222
G1 X149.466 Y68.166 E0.19240
G1 X149.000 Y68.201 E0.19258
G1 X148.534 Y68.166 E0.19275
G1 X148.078 Y68.065 E0.19293
G1 X147.642 Y67.898 E0.19310
G1 X147.234 Y67.669 E0.19328
G1 X146.864 Y67.384 E0.19345
G1 X146.540 Y67.047 E0.19363
G1 X146.268 Y66.667 E0.19380
G1 X146.054 Y66.252 E0.19398
G1 X145.904 Y65.810 E0.19415
G1 X145.822 Y65.369 E0.19432
G1 X145.802 Y64.883 E0.19451
G1 X145.853 Y64.419 E0.19468
G1 X145.971 Y63.967 E0.19486
G1 X146.125 Y63.605 E0.19500
G1 X145.953 Y63.240 F12000.000
G1 X145.082 Y62.932 F12000.000
G1 X145.343 Y62.499 E0.19519 F1380
G1 X145.652 Y62.099 E0.19538
G1 X146.004 Y61.736 E0.19557
G1 X146.396 Y61.416 E0.19576
G1 X146.821 Y61.142 E0.19595
G1 X147.275 Y60.919 E0.19614
G1 X147.752 Y60.749 E0.19633
G1 X148.245 Y60.634 E0.19652
G1 X148.755 Y60.576 E0.19672
G1 X149.000 Y60.569 E0.19681
G1 X149.245 Y60.576 E0.19690
G1 X149.755 Y60.634 E0.19709
G1 X150.248 Y60.749 E0.19728
G1 X150.725 Y60.919 E0.19747
G1 X151.179 Y61.142 E0.19766
G1 X151.604 Y61.416 E0.19785
G1 X151.996 Y61.736 E0.19804
G1 X152.348 Y62.099 E0.19823
G1 X152.657 Y62.499 E0.19842
G1 X152.918 Y62.932 E0.19861
G1 X153.129 Y63.393 E0.19880
G1 X153.285 Y63.874 E0.19899
G1 X153.385 Y64.369 E0.19918
G1 X153.429 Y64.873 E0.19937
G1 X153.414 Y65.379 E0.19956
G1 X153.342 Y65.880 E0.19975
G1 X153.214 Y66.369 E0.19994
G1 X153.030 Y66.840 E0.20013
G1 X152.794 Y67.288 E0.20032
G1 X152.508 Y67.705 E0.20051
G1 X152.177 Y68.088 E0.20070
G1 X151.804 Y68.430 E0.20089
G1 X151.395 Y68.727 E0.20108
G1 X150.955 Y68.976 E0.20127
G1 X150.489 Y69.173 E0.20146
G1 X150.003 Y69.315 E0.20165
G1 X149.505 Y69.402 E0.20184
G1 X149.000 Y69.430 E0.20203
G1 X148.495 Y69.402 E0.20222
G1 X147.997 Y69.315 E0.20241
G1 X147.511 Y69.173 E0.20260
G1 X147.045 Y68.976 E0.20279
G1 X146.605 Y68.727 E0.20298
G1 X146.195 Y68.430 E0.20317
G1 X145.823 Y68.088 E0.20336
G1 X145.492 Y67.705 E0.20355
G1 X145.206 Y67.288 E0.20374
G1 X144.970 Y66.840 E0.20393
G1 X144.786 Y66.369 E0.20412
G1 X144.658 Y65.880 E0.20431
G1 X144.586 Y65.379 E0.20450
G1 X144.571 Y64.873 E0.20469
G1 X144.615 Y64.369 E0.20488
G1 X144.715 Y63.874 E0.20507
G1 X144.871 Y63.393 E0.20526
G1 X145.059 Y62.983 E0.20543
G1 X144.755 Y62.760 F12000.000
G1 X145.038 Y62.291 E0.20564 F1380
G1 X145.373 Y61.857 E0.20584
G1 X145.755 Y61.464 E0.20605
G1 X146.179 Y61.117 E0.20625
G1 X146.640 Y60.821 E0.20646
G1 X147.132 Y60.579 E0.20667
G1 X147.648 Y60.395 E0.20687
G1 X148.182 Y60.271 E0.20708
G1 X148.729 Y60.208 E0.20728
G1 X149.271 Y60.208 E0.20749
G1 X149.818 Y60.271 E0.20769
G1 X150.352 Y60.395 E0.20790
G1 X150.868 Y60.579 E0.20811
G1 X151.360 Y60.821 E0.20831
G1 X151.821 Y61.117 E0.20852
G1 X152.245 Y61.464 E0.20872
G1 X152.627 Y61.857 E0.20893
G1 X152.962 Y62.291 E0.20914
G1 X153.245 Y62.760 E0.20934
G1 X153.473 Y63.259 E0.20955
G1 X153.642 Y63.780 E0.20975
G1 X153.751 Y64.317 E0.20996
G1 X153.798 Y64.863 E0.21016
G1 X153.782 Y65.411 E0.21037
G1 X153.704 Y65.953 E0.21058
G1 X153.565 Y66.483 E0.21078
G1 X153.366 Y66.994 E0.21099
G1 X153.110 Y67.479 E0.21119
G1 X152.801 Y67.931 E0.21140
G1 X152.442 Y68.345 E0.21160
G1 X152.038 Y68.716 E0.21181
G1 X151.595 Y69.038 E0.21202
G1 X151.118 Y69.307 E0.21222
G1 X150.613 Y69.521 E0.21243
G1 X150.087 Y69.675 E0.21263
G1 X149.547 Y69.768 E0.21284
G1 X149.000 Y69.800 E0.21305
G1 X148.453 Y69.768 E0.21325
G1 X147.913 Y69.675 E0.21346
G1 X147.387 Y69.521 E0.21366
G1 X146.882 Y69.307 E0.21387
G1 X146.405 Y69.038 E0.21407
G1 X145.962 Y68.716 E0.21428
G1 X145.558 Y68.345 E0.21449
G1 X145.199 Y67.931 E0.21469
G1 X144.890 Y67.479 E0.21490
G1 X144.634 Y66.994 E0.21510
G1 X144.435 Y66.483 E0.21531
G1 X144.296 Y65.953 E0.21551
G1 X144.218 Y65.411 E0.21572
G1 X144.202 Y64.863 E0.21593
G1 X144.249 Y64.317 E0.21613
G1 X144.358 Y63.780 E0.21634
G1 X144.527 Y63.259 E0.21654
G1 X144.732 Y62.810 E0.21673
G1 X145.124 Y62.753 F12000.000
M106 S255
G1 Z15.900 F12000.000
G1 X144.971 Y63.147 F12000.000
G1 X147.150 Y60.968 E0.21757 F600.000
G1 X147.763 Y60.735 F12000.000
G1 X144.741 Y63.756 E0.21874 F600.000
G1 X145.580 Y64.056 F12000.000
G1 X144.566 Y65.071 E0.21913 F600.000
G1 X144.582 Y65.434 E0.21923
G1 X145.480 Y64.536 E0.21958
G1 X145.446 Y64.949 E0.21969
G1 X144.630 Y65.766 E0.22001
G1 X144.698 Y66.077 E0.22009
G1 X145.460 Y65.316 E0.22039
G1 X145.512 Y65.643 E0.22048
G1 X144.778 Y66.378 E0.22076
G1 X144.884 Y66.651 E0.22084
G1 X145.577 Y65.958 E0.22111
G1 X145.673 Y66.241 E0.22119
G1 X144.998 Y66.917 E0.22146
G1 X145.129 Y67.165 E0.22153
G1 X145.785 Y66.509 E0.22179
G1 X145.914 Y66.760 E0.22186
G1 X145.271 Y67.403 E0.22211
G1 X145.425 Y67.628 E0.22219
G1 X146.061 Y66.992 E0.22243
G1 X146.219 Y67.214 E0.22251
G1 X145.593 Y67.840 E0.22275
G1 X145.773 Y68.040 E0.22282
G1 X146.398 Y67.415 E0.22306
G1 X146.584 Y67.608 E0.22314
G1 X145.963 Y68.230 E0.22338
G1 X146.160 Y68.412 E0.22345
G1 X146.792 Y67.780 E0.22370
G1 X147.007 Y67.945 E0.22377
G1 X146.376 Y68.575 E0.22401
G1 X146.596 Y68.735 E0.22409
G1 X147.246 Y68.086 E0.22434
G1 X147.489 Y68.222 E0.22442
G1 X146.839 Y68.872 E0.22467
G1 X147.085 Y69.005 E0.22474
G1 X147.766 Y68.325 E0.22501
G1 X148.046 Y68.424 E0.22509
G1 X147.352 Y69.118 E0.22536
G1 X147.630 Y69.220 E0.22544
G1 X148.357 Y68.493 E0.22572
G1 X148.693 Y68.536 E0.22581
G1 X147.924 Y69.306 E0.22611
G1 X148.240 Y69.369 E0.22620
G1 X149.054 Y68.555 E0.22651
G1 X149.464 Y68.525 E0.22662
G1 X148.572 Y69.417 E0.22697
G1 X148.931 Y69.438 E0.22707
G1 X149.942 Y68.427 E0.22746
G1 X150.545 Y68.203 F12000.000
G1 X149.325 Y69.423 E0.22793 F600.000
G1 X150.858 Y69.029 F12000.000
G1 X153.039 Y66.849 E0.22877 F600.000
G1 X153.256 Y66.251 F12000.000
G1 X150.254 Y69.253 E0.22993 F600.000
G1 X149.759 Y69.369 E0.23007
G1 X153.371 Y65.756 E0.23147
G1 X153.427 Y65.321 E0.23159
G1 X152.190 Y66.558 E0.23207
G1 X152.430 Y65.938 F12000.000
G1 X153.438 Y64.930 E0.23246 F600.000
G1 X153.414 Y64.575 E0.23256
G1 X152.518 Y65.471 E0.23290
G1 X152.550 Y65.060 E0.23302
G1 X153.370 Y64.239 E0.23333
G1 X153.306 Y63.923 E0.23342
G1 X152.537 Y64.693 E0.23372
G1 X152.499 Y64.351 E0.23381
G1 X153.218 Y63.632 E0.23409
G1 X153.121 Y63.349 E0.23417
G1 X152.420 Y64.050 E0.23444
G1 X152.330 Y63.761 E0.23453
G1 X153.002 Y63.089 E0.23479
G1 X152.874 Y62.837 E0.23486
G1 X152.217 Y63.494 E0.23512
G1 X152.087 Y63.245 E0.23519
G1 X152.731 Y62.600 E0.23544
G1 X152.576 Y62.376 E0.23552
G1 X151.943 Y63.009 E0.23576
G1 X151.780 Y62.792 E0.23584
G1 X152.411 Y62.161 E0.23608
G1 X152.227 Y61.965 E0.23615
G1 X151.608 Y62.585 E0.23639
G1 X151.415 Y62.398 E0.23647
G1 X152.037 Y61.776 E0.23671
G1 X151.839 Y61.594 E0.23678
G1 X151.215 Y62.219 E0.23702
G1 X150.992 Y62.062 E0.23710
G1 X151.631 Y61.423 E0.23734
G1 X151.402 Y61.272 E0.23742
G1 X150.763 Y61.911 E0.23767
G1 X150.507 Y61.787 E0.23774
G1 X151.169 Y61.125 E0.23800
G1 X150.915 Y61.000 E0.23808
G1 X150.246 Y61.668 E0.23834
G1 X149.954 Y61.581 E0.23842
G1 X150.653 Y60.882 E0.23869
G1 X150.373 Y60.782 E0.23877
G1 X149.647 Y61.508 E0.23905
G1 X149.317 Y61.459 E0.23914
G1 X150.078 Y60.698 E0.23944
G1 X149.770 Y60.626 E0.23952
G1 X148.952 Y61.444 E0.23984
G1 X148.545 Y61.471 E0.23995
G1 X149.430 Y60.586 E0.24029
G1 X149.077 Y60.560 E0.24039
G1 X148.165 Y61.471 E0.24074
G1 X147.451 Y61.806 F12000.000
G1 X148.684 Y60.573 E0.24122 F600.000
G1 X148.255 Y60.622 E0.24134
G1 X144.627 Y64.250 E0.24274
G1 X144.577 Y64.680 E0.24286
G1 X145.799 Y63.458 E0.24333
G1 X145.630 Y62.108 F12000.000
G1 X146.074 Y61.664 E0.24350 F600.000
G1 X145.630 Y62.108 F2766.050 E0.23978
G1 F60.000 E0.07350
G92 E0
G1 X152.277 Y67.989 F12000.000
G1 E0.17000 F60.000
G1 X152.013 Y68.254 E0.17010 F600.000
G1 X151.257 Y67.519 F12000.000
G1 X150.866 Y67.821 E0.17023 F600.000
G1 X150.436 Y68.062 E0.17036
G1 X149.974 Y68.239 E0.17049
G1 X149.492 Y68.346 E0.17061
G1 X149.000 Y68.382 E0.17074
G1 X148.508 Y68.346 E0.17087
G1 X148.026 Y68.239 E0.17100
G1 X147.564 Y68.062 E0.17112
G1 X147.134 Y67.821 E0.17125
G1 X146.743 Y67.519 E0.17138
G1 X146.400 Y67.163 E0.17151
G1 X146.113 Y66.762 E0.17164
G1 X145.887 Y66.323 E0.17176
G1 X145.741 Y65.894 E0.17188
G1 X145.638 Y65.370 E0.17202
G1 X145.620 Y64.876 E0.17215
G1 X145.674 Y64.386 E0.17227
G1 X145.799 Y63.908 E0.17240
G1 X145.992 Y63.454 E0.17253
G1 X146.249 Y63.032 E0.17266
G1 X146.565 Y62.653 E0.17278
G1 X146.933 Y62.323 E0.17291
G1 X147.345 Y62.051 E0.17304
G1 X148.368 Y61.571 E0.17333
G1 X148.368 Y61.684 E0.17336
G1 X148.746 Y61.628 E0.17346
G1 X149.254 Y61.628 E0.17359
G1 X149.735 Y61.699 E0.17372
G1 X150.208 Y61.841 E0.17385
G1 X150.655 Y62.051 E0.17397
G1 X151.033 Y62.301 E0.17409
G1 X151.435 Y62.653 E0.17423
G1 X151.751 Y63.032 E0.17436
G1 X152.008 Y63.454 E0.17448
G1 X152.201 Y63.908 E0.17461
G1 X152.326 Y64.386 E0.17474
G1 X152.380 Y64.876 E0.17487
G1 X152.362 Y65.370 E0.17500
G1 X152.272 Y65.855 E0.17512
G1 X152.113 Y66.323 E0.17525
G1 X151.887 Y66.762 E0.17538
G1 X151.600 Y67.163 E0.17551
G1 X151.283 Y67.491 E0.17562
G1 X151.102 Y67.313 F12000.000
G1 X150.726 Y67.608 E0.17575 F600.000
G1 X150.327 Y67.832 E0.17587
G1 X149.901 Y67.995 E0.17598
G1 X149.455 Y68.094 E0.17610
G1 X149.000 Y68.127 E0.17622
G1 X148.545 Y68.094 E0.17634
G1 X148.099 Y67.995 E0.17646
G1 X147.694 Y67.840 E0.17657
G1 X147.274 Y67.608 E0.17669
G1 X146.913 Y67.329 E0.17681
G1 X146.596 Y67.000 E0.17693
G1 X146.331 Y66.629 E0.17705
