; generated by Slic3r 1.0.1 on 2023-06-26 at 14:07:19

; layer_height = 0.2
; perimeters = 2
; top_solid_layers = 2
; bottom_solid_layers = 2
; fill_density = 0.9
; perimeter_speed = 23
; infill_speed = 23
; travel_speed = 200
; nozzle_diameter = 0.254
; filament_diameter = 1
; extrusion_multiplier = 0.004
; perimeters extrusion width = 0.25mm
; infill extrusion width = 0.27mm
; solid infill extrusion width = 0.27mm
; top infill extrusion width = 0.27mm
; first layer extrusion width = 0.40mm

G21 ; set units to millimeters
M104 S220 ; set temperature
G21 ; set units to millimeters
M302 S0
M140 S0 ; kill bed temperature
G28 ;home all axis
G1 Z100 F2000 ; lift nozzle
G1 X100 F2000
G1 Y170 F2000
G1 E0.6 F0.5
G4 P30000 ; delay 30 seconds
G1 X100 F2000
G1 Y100 F2000
M92 E3720
M203 E0.425 ; 200x retraction speed in mm/sec
M107 ; turns fan off
G90 ; use absolute coordinates
G92 E0
M82 ; use absolute distances for extrusion
M109 S220 ; wait for temperature to be reached
G90 ; use absolute coordinates
G92 E0
M82 ; use absolute distances for extrusion
M106 S153
G1 Z15.700 F12000.000
G1 F60.000 E-0.17000
G92 E0
G1 X91.082 Y114.082 F12000.000
G1 E0.17000 F60.000
G1 X91.072 Y114.594 E0.17019 F1380
G1 X91.426 Y114.948 E0.17038 F1380
G1 X91.072 Y115.116 E0.17053 F1380
G1 X91.426 Y115.470 E0.17072 F1380
G1 X91.072 Y115.638 E0.17086 F1380
G1 X91.426 Y115.992 E0.17105 F1380
G1 X91.072 Y116.160 E0.17120 F1380
G1 X91.426 Y116.514 E0.17139 F1380
G1 X91.072 Y116.682 E0.17153 F1380
G1 X91.426 Y117.036 E0.17172 F1380
G1 X91.072 Y117.204 E0.17187 F1380
G1 X91.426 Y117.558 E0.17206 F1380
G1 X91.072 Y117.726 E0.17220 F1380
G1 X91.426 Y118.080 E0.17239 F1380
G1 X91.072 Y118.248 E0.17254 F1380
G1 X91.426 Y118.602 E0.17273 F1380
G1 X91.072 Y118.770 E0.17287 F1380
G1 X91.426 Y119.124 E0.17306 F1380
G1 X91.072 Y119.292 E0.17321 F1380
G1 X91.426 Y119.646 E0.17340 F1380
G1 X91.072 Y119.814 E0.17355 F1380
G1 X91.426 Y120.168 E0.17373 F1380
G1 X91.072 Y120.336 F12000.000
G1 X91.662 Y120.926 E0.17405 F1380
G1 X91.830 Y120.572 E0.17419 F1380
G1 X92.184 Y120.926 E0.17438 F1380
G1 X92.352 Y120.572 E0.17453 F1380
G1 X92.706 Y120.926 E0.17472 F1380
G1 X92.874 Y120.572 E0.17486 F1380
G1 X93.228 Y120.926 E0.17505 F1380
G1 X93.396 Y120.572 E0.17520 F1380
G1 X93.750 Y120.926 E0.17539 F1380
G1 X93.918 Y120.572 E0.17554 F1380
G1 X94.272 Y120.926 E0.17572 F1380
G1 X94.440 Y120.572 E0.17587 F1380
G1 X94.794 Y120.926 E0.17606 F1380
G1 X94.962 Y120.572 E0.17621 F1380
G1 X95.316 Y120.926 E0.17639 F1380
G1 X95.484 Y120.572 E0.17654 F1380
G1 X95.838 Y120.926 E0.17673 F1380
G1 X96.006 Y120.572 E0.17688 F1380
G1 X96.360 Y120.926 E0.17706 F1380
G1 X96.528 Y120.572 E0.17721 F1380
G1 X96.882 Y120.926 E0.17740 F1380
G1 X97.050 Y120.572 E0.17755 F1380
G1 X97.404 Y120.926 E0.17774 F1380
G1 X97.572 Y121.094 E0.17782 F1380
G1 X97.926 Y121.448 E0.17801 F1380
G1 X97.572 Y121.616 E0.17816 F1380
G1 X97.926 Y121.970 E0.17835 F1380
G1 X97.572 Y122.138 E0.17850 F1380
G1 X97.926 Y122.492 E0.17868 F1380
G1 X97.572 Y122.660 E0.17883 F1380
G1 X97.926 Y123.014 E0.17902 F1380
G1 X97.572 Y123.182 E0.17917 F1380
G1 X97.926 Y123.536 E0.17935 F1380
G1 X97.572 Y123.704 E0.17950 F1380
G1 X97.926 Y124.058 E0.17969 F1380
G1 X97.572 Y124.226 E0.17984 F1380
G1 X97.926 Y124.580 E0.18002 F1380
G1 X97.572 Y124.748 E0.18017 F1380
G1 X97.926 Y125.102 E0.18036 F1380
G1 X97.572 Y125.270 E0.18051 F1380
G1 X97.926 Y125.624 E0.18070 F1380
G1 X97.572 Y125.792 E0.18084 F1380
G1 X97.926 Y126.146 E0.18103 F1380
G1 X97.572 Y126.314 E0.18118 F1380
G1 X97.926 Y126.668 E0.18137 F1380
G1 X97.572 Y126.836 F12000.000
G1 X97.286 Y127.072 E0.18151 F1380
G1 X97.926 Y127.712 E0.18185 F1380
G1 X97.572 Y127.880 E0.18199 F1380
G1 X97.926 Y128.234 E0.18218 F1380
G1 X97.572 Y128.402 E0.18233 F1380
G1 X97.926 Y128.756 E0.18252 F1380
G1 X97.572 Y128.924 E0.18266 F1380
G1 X97.926 Y129.278 E0.18285 F1380
G1 X97.572 Y129.446 E0.18300 F1380
G1 X97.926 Y129.800 E0.18319 F1380
G1 X97.572 Y129.968 E0.18333 F1380
G1 X97.926 Y130.322 E0.18352 F1380
G1 X97.572 Y130.490 E0.18367 F1380
G1 X97.926 Y130.844 E0.18386 F1380
G1 X97.572 Y131.012 E0.18400 F1380
G1 X97.926 Y131.366 E0.18419 F1380
G1 X97.572 Y131.534 E0.18434 F1380
G1 X97.926 Y131.888 E0.18453 F1380
G1 X97.572 Y132.056 E0.18468 F1380
G1 X97.926 Y132.410 E0.18486 F1380
G1 X97.572 Y132.578 E0.18501 F1380
G1 X97.926 Y132.932 E0.18520 F1380
G1 X97.572 Y133.100 E0.18535 F1380
G1 X97.926 Y133.454 E0.18553 F1380
G1 X98.046 Y133.574 F12000.000
G1 X98.395 Y133.923 E0.18572 F1380
G1 X98.568 Y133.574 E0.18587 F1380
G1 X98.917 Y133.923 E0.18605 F1380
G1 X99.090 Y133.574 E0.18620 F1380
G1 X99.439 Y133.923 E0.18638 F1380
G1 X99.612 Y133.574 E0.18653 F1380
G1 X99.961 Y133.923 E0.18672 F1380
G1 X100.134 Y133.574 E0.18686 F1380
G1 X100.483 Y133.923 E0.18705 F1380
G1 X100.656 Y133.574 E0.18719 F1380
G1 X101.005 Y133.923 E0.18738 F1380
G1 X101.178 Y133.574 E0.18753 F1380
G1 X101.527 Y133.923 E0.18771 F1380
G1 X101.700 Y133.574 E0.18786 F1380
G1 X102.049 Y133.923 E0.18804 F1380
G1 X102.222 Y133.574 E0.18819 F1380
G1 X102.571 Y133.923 E0.18838 F1380
G1 X102.744 Y133.574 E0.18852 F1380
G1 X103.093 Y133.923 E0.18871 F1380
G1 X103.266 Y133.574 E0.18885 F1380
G1 X103.615 Y133.923 E0.18904 F1380
G1 X103.788 Y133.574 E0.18919 F1380
G1 X104.142 Y133.928 E0.18937 F1380
G1 X104.659 Y133.923 E0.18957 F1380
G1 X104.072 Y133.336 E0.18988 F1380
G1 X104.426 Y133.168 E0.19003 F1380
G1 X104.072 Y132.814 E0.19022 F1380
G1 X104.426 Y132.646 E0.19036 F1380
G1 X104.072 Y132.292 E0.19055 F1380
G1 X104.426 Y132.124 E0.19070 F1380
G1 X104.072 Y131.770 E0.19089 F1380
G1 X104.426 Y131.602 E0.19103 F1380
G1 X104.072 Y131.248 E0.19122 F1380
G1 X104.426 Y131.080 E0.19137 F1380
G1 X104.072 Y130.726 E0.19156 F1380
G1 X104.426 Y130.558 E0.19170 F1380
G1 X104.072 Y130.204 E0.19189 F1380
G1 X104.426 Y130.036 E0.19204 F1380
G1 X104.072 Y129.682 E0.19223 F1380
G1 X104.426 Y129.514 E0.19238 F1380
G1 X104.072 Y129.160 E0.19256 F1380
G1 X104.426 Y128.992 E0.19271 F1380
G1 X104.072 Y128.638 E0.19290 F1380
G1 X104.426 Y128.470 E0.19305 F1380
G1 X104.072 Y128.116 E0.19323 F1380
G1 X104.426 Y127.948 E0.19338 F1380
G1 X104.072 Y127.594 E0.19357 F1380
G1 X103.904 Y127.426 E0.19366 F1380
G1 X103.550 Y127.072 E0.19385 F1380
G1 X103.382 Y127.426 E0.19399 F1380
G1 X103.028 Y127.072 E0.19418 F1380
G1 X102.860 Y127.426 E0.19433 F1380
G1 X102.506 Y127.072 E0.19452 F1380
G1 X102.338 Y127.426 E0.19466 F1380
G1 X101.984 Y127.072 E0.19485 F1380
G1 X101.816 Y127.426 E0.19500 F1380
G1 X101.462 Y127.072 E0.19519 F1380
G1 X101.294 Y127.426 E0.19534 F1380
G1 X100.940 Y127.072 E0.19552 F1380
G1 X100.772 Y127.426 E0.19567 F1380
G1 X100.418 Y127.072 E0.19586 F1380
G1 X100.250 Y127.426 E0.19601 F1380
G1 X99.896 Y127.072 E0.19619 F1380
G1 X99.728 Y127.426 E0.19634 F1380
G1 X99.374 Y127.072 E0.19653 F1380
G1 X99.206 Y127.426 E0.19668 F1380
G1 X98.852 Y127.072 E0.19686 F1380
G1 X98.684 Y127.426 E0.19701 F1380
G1 X98.330 Y127.072 E0.19720 F1380
G1 X98.162 Y127.426 E0.19735 F1380
G1 X97.572 Y126.836 E0.19766 F1380
G1 X97.118 Y127.426 F12000.000
G1 X96.764 Y127.072 E0.19785 F1380
G1 X96.596 Y127.426 E0.19800 F1380
G1 X96.242 Y127.072 E0.19818 F1380
G1 X96.074 Y127.426 E0.19833 F1380
G1 X95.720 Y127.072 E0.19852 F1380
G1 X95.552 Y127.426 E0.19867 F1380
G1 X95.198 Y127.072 E0.19885 F1380
G1 X95.030 Y127.426 E0.19900 F1380
G1 X94.676 Y127.072 E0.19919 F1380
G1 X94.508 Y127.426 E0.19934 F1380
G1 X94.154 Y127.072 E0.19953 F1380
G1 X93.986 Y127.426 E0.19967 F1380
G1 X93.632 Y127.072 E0.19986 F1380
G1 X93.464 Y127.426 E0.20001 F1380
G1 X93.110 Y127.072 E0.20020 F1380
G1 X92.942 Y127.426 E0.20034 F1380
G1 X92.588 Y127.072 E0.20053 F1380
G1 X92.420 Y127.426 E0.20068 F1380
G1 X92.066 Y127.072 E0.20087 F1380
G1 X91.898 Y127.426 E0.20101 F1380
G1 X91.544 Y127.072 E0.20120 F1380
G1 X91.426 Y126.954 E0.20126 F1380
G1 X91.072 Y126.600 E0.20145 F1380
G1 X91.426 Y126.432 E0.20160 F1380
G1 X91.072 Y126.078 E0.20179 F1380
G1 X91.426 Y125.910 E0.20194 F1380
G1 X91.072 Y125.556 E0.20212 F1380
G1 X91.426 Y125.388 E0.20227 F1380
G1 X91.072 Y125.034 E0.20246 F1380
G1 X91.426 Y124.866 E0.20261 F1380
G1 X91.072 Y124.512 E0.20279 F1380
G1 X91.426 Y124.344 E0.20294 F1380
G1 X91.072 Y123.990 E0.20313 F1380
G1 X91.426 Y123.822 E0.20328 F1380
G1 X91.072 Y123.468 E0.20346 F1380
G1 X91.426 Y123.300 E0.20361 F1380
G1 X91.072 Y122.946 E0.20380 F1380
G1 X91.426 Y122.778 E0.20395 F1380
G1 X91.072 Y122.424 E0.20414 F1380
G1 X91.426 Y122.256 E0.20428 F1380
G1 X91.072 Y121.902 E0.20447 F1380
G1 X91.426 Y121.734 E0.20462 F1380
G1 X91.072 Y121.380 E0.20481 F1380
G1 X91.426 Y121.212 E0.20495 F1380
G1 X91.072 Y120.858 E0.20514 F1380
G1 X91.072 Y120.336 E0.20534 F1380
G1 X91.426 Y114.426 F12000.000
G1 X91.082 Y114.082 E0.20552 F1380
G1 X91.426 Y114.426 F12000.000
G1 X91.594 Y114.072 E0.20567 F1380
G1 X91.948 Y114.426 E0.20586 F1380
G1 X92.116 Y114.072 E0.20600 F1380
G1 X92.470 Y114.426 E0.20619 F1380
G1 X92.638 Y114.072 E0.20634 F1380
G1 X92.992 Y114.426 E0.20653 F1380
G1 X93.160 Y114.072 E0.20667 F1380
G1 X93.514 Y114.426 E0.20686 F1380
G1 X93.682 Y114.072 E0.20701 F1380
G1 X94.036 Y114.426 E0.20720 F1380
G1 X94.204 Y114.072 E0.20734 F1380
G1 X94.558 Y114.426 E0.20753 F1380
G1 X94.726 Y114.072 E0.20768 F1380
G1 X95.080 Y114.426 E0.20787 F1380
G1 X95.248 Y114.072 E0.20801 F1380
G1 X95.602 Y114.426 E0.20820 F1380
G1 X95.770 Y114.072 E0.20835 F1380
G1 X96.124 Y114.426 E0.20854 F1380
G1 X96.292 Y114.072 E0.20869 F1380
G1 X96.646 Y114.426 E0.20887 F1380
G1 X96.814 Y114.072 E0.20902 F1380
G1 X97.168 Y114.426 E0.20921 F1380
G1 X97.336 Y114.072 E0.20936 F1380
G1 X97.926 Y114.662 E0.20967 F1380
G1 X97.572 Y114.830 E0.20982 F1380
G1 X97.926 Y115.184 E0.21000 F1380
G1 X97.572 Y115.352 E0.21015 F1380
G1 X97.926 Y115.706 E0.21034 F1380
G1 X97.572 Y115.874 E0.21049 F1380
G1 X97.926 Y116.228 E0.21068 F1380
G1 X97.572 Y116.396 E0.21082 F1380
G1 X97.926 Y116.750 E0.21101 F1380
G1 X97.572 Y116.918 E0.21116 F1380
G1 X97.926 Y117.272 E0.21135 F1380
G1 X97.572 Y117.440 E0.21149 F1380
G1 X97.926 Y117.794 E0.21168 F1380
G1 X97.572 Y117.962 E0.21183 F1380
G1 X97.926 Y118.316 E0.21202 F1380
G1 X97.572 Y118.484 E0.21216 F1380
G1 X97.926 Y118.838 E0.21235 F1380
G1 X97.572 Y119.006 E0.21250 F1380
G1 X97.926 Y119.360 E0.21269 F1380
G1 X97.572 Y119.528 E0.21283 F1380
G1 X97.926 Y119.882 E0.21302 F1380
G1 X97.572 Y120.050 E0.21317 F1380
G1 X97.926 Y120.404 E0.21336 F1380
G1 X97.572 Y120.572 E0.21350 F1380
G1 X97.926 Y120.926 E0.21369 F1380
G1 X98.094 Y120.572 F12000.000
G1 X98.448 Y120.926 E0.21388 F1380
G1 X98.616 Y120.572 E0.21403 F1380
G1 X98.970 Y120.926 E0.21422 F1380
G1 X99.138 Y120.572 E0.21436 F1380
G1 X99.492 Y120.926 E0.21455 F1380
G1 X99.660 Y120.572 E0.21470 F1380
G1 X100.014 Y120.926 E0.21489 F1380
G1 X100.182 Y120.572 E0.21503 F1380
G1 X100.536 Y120.926 E0.21522 F1380
G1 X100.704 Y120.572 E0.21537 F1380
G1 X101.058 Y120.926 E0.21556 F1380
G1 X101.226 Y120.572 E0.21570 F1380
G1 X101.580 Y120.926 E0.21589 F1380
G1 X101.748 Y120.572 E0.21604 F1380
G1 X102.102 Y120.926 E0.21623 F1380
G1 X102.270 Y120.572 E0.21638 F1380
G1 X102.624 Y120.926 E0.21656 F1380
G1 X102.792 Y120.572 E0.21671 F1380
G1 X103.146 Y120.926 E0.21690 F1380
G1 X103.314 Y120.572 E0.21705 F1380
G1 X103.668 Y120.926 E0.21723 F1380
G1 X103.836 Y120.572 E0.21738 F1380
G1 X104.426 Y121.162 E0.21769 F1380
G1 X104.712 Y120.926 E0.21783 F1380
G1 X104.072 Y120.286 E0.21817 F1380
G1 X104.426 Y120.118 E0.21832 F1380
G1 X104.072 Y119.764 E0.21851 F1380
G1 X104.426 Y119.596 E0.21866 F1380
G1 X104.072 Y119.242 E0.21884 F1380
G1 X104.426 Y119.074 E0.21899 F1380
G1 X104.072 Y118.720 E0.21918 F1380
G1 X104.426 Y118.552 E0.21933 F1380
G1 X104.072 Y118.198 E0.21952 F1380
G1 X104.426 Y118.030 E0.21966 F1380
G1 X104.072 Y117.676 E0.21985 F1380
G1 X104.426 Y117.508 E0.22000 F1380
G1 X104.072 Y117.154 E0.22019 F1380
G1 X104.426 Y116.986 E0.22033 F1380
G1 X104.072 Y116.632 E0.22052 F1380
G1 X104.426 Y116.464 E0.22067 F1380
G1 X104.072 Y116.110 E0.22086 F1380
G1 X104.426 Y115.942 E0.22100 F1380
G1 X104.072 Y115.588 E0.22119 F1380
G1 X104.426 Y115.420 E0.22134 F1380
G1 X104.072 Y115.066 E0.22153 F1380
G1 X104.426 Y114.898 E0.22167 F1380
G1 X104.072 Y114.544 E0.22186 F1380
G1 X103.954 Y114.426 E0.22193 F1380
G1 X103.600 Y114.072 E0.22211 F1380
G1 X103.432 Y114.426 E0.22226 F1380
G1 X103.078 Y114.072 E0.22245 F1380
G1 X102.910 Y114.426 E0.22260 F1380
G1 X102.556 Y114.072 E0.22278 F1380
G1 X102.388 Y114.426 E0.22293 F1380
G1 X102.034 Y114.072 E0.22312 F1380
G1 X101.866 Y114.426 E0.22327 F1380
G1 X101.512 Y114.072 E0.22345 F1380
G1 X101.344 Y114.426 E0.22360 F1380
G1 X100.990 Y114.072 E0.22379 F1380
G1 X100.822 Y114.426 E0.22394 F1380
G1 X100.468 Y114.072 E0.22413 F1380
G1 X100.300 Y114.426 E0.22427 F1380
G1 X99.946 Y114.072 E0.22446 F1380
G1 X99.778 Y114.426 E0.22461 F1380
G1 X99.424 Y114.072 E0.22480 F1380
G1 X99.256 Y114.426 E0.22494 F1380
G1 X98.902 Y114.072 E0.22513 F1380
G1 X98.734 Y114.426 E0.22528 F1380
G1 X98.380 Y114.072 E0.22547 F1380
G1 X98.212 Y114.426 E0.22561 F1380
G1 X97.858 Y114.072 E0.22580 F1380
G1 X104.122 Y114.072 F12000.000
G1 X104.476 Y114.426 E0.22599 F1380
G1 X104.644 Y114.072 E0.22614 F1380
G1 X104.998 Y114.426 E0.22633 F1380
G1 X105.166 Y114.072 E0.22647 F1380
G1 X105.520 Y114.426 E0.22666 F1380
G1 X105.688 Y114.072 E0.22681 F1380
G1 X106.042 Y114.426 E0.22700 F1380
G1 X106.210 Y114.072 E0.22714 F1380
G1 X106.564 Y114.426 E0.22733 F1380
G1 X106.732 Y114.072 E0.22748 F1380
G1 X107.086 Y114.426 E0.22767 F1380
G1 X107.254 Y114.072 E0.22781 F1380
G1 X107.608 Y114.426 E0.22800 F1380
G1 X107.776 Y114.072 E0.22815 F1380
G1 X108.130 Y114.426 E0.22834 F1380
G1 X108.298 Y114.072 E0.22848 F1380
G1 X108.652 Y114.426 E0.22867 F1380
G1 X108.820 Y114.072 E0.22882 F1380
G1 X109.174 Y114.426 E0.22901 F1380
G1 X109.342 Y114.072 E0.22915 F1380
G1 X109.696 Y114.426 E0.22934 F1380
G1 X109.864 Y114.072 E0.22949 F1380
G1 X110.218 Y114.426 E0.22968 F1380
G1 X110.386 Y114.072 E0.22983 F1380
G1 X110.923 Y114.609 E0.23011 F1380
G1 X110.574 Y114.782 E0.23026 F1380
G1 X110.923 Y115.131 E0.23044 F1380
G1 X110.574 Y115.304 E0.23059 F1380
G1 X110.923 Y115.653 E0.23078 F1380
G1 X110.574 Y115.826 E0.23092 F1380
G1 X110.923 Y116.175 E0.23111 F1380
G1 X110.574 Y116.348 E0.23125 F1380
G1 X110.923 Y116.697 E0.23144 F1380
G1 X110.574 Y116.870 E0.23159 F1380
G1 X110.923 Y117.219 E0.23177 F1380
G1 X110.574 Y117.392 E0.23192 F1380
G1 X110.923 Y117.741 E0.23210 F1380
G1 X110.574 Y117.914 E0.23225 F1380
G1 X110.923 Y118.263 E0.23244 F1380
G1 X110.574 Y118.436 E0.23258 F1380
G1 X110.923 Y118.785 E0.23277 F1380
G1 X110.574 Y118.958 E0.23291 F1380
G1 X110.923 Y119.307 E0.23310 F1380
G1 X110.574 Y119.480 E0.23325 F1380
G1 X110.923 Y119.829 E0.23343 F1380
G1 X110.574 Y120.002 E0.23358 F1380
G1 X110.923 Y120.351 E0.23376 F1380
G1 X110.574 Y120.524 E0.23391 F1380
G1 X110.928 Y120.878 E0.23410 F1380
G1 X110.574 Y121.046 E0.23425 F1380
G1 X110.923 Y121.395 E0.23443 F1380
G1 X110.574 Y121.568 E0.23458 F1380
G1 X110.923 Y121.917 E0.23476 F1380
G1 X110.574 Y122.090 E0.23491 F1380
G1 X110.923 Y122.439 E0.23509 F1380
G1 X110.574 Y122.612 E0.23524 F1380
G1 X110.923 Y122.961 E0.23543 F1380
G1 X110.574 Y123.134 E0.23557 F1380
G1 X110.923 Y123.483 E0.23576 F1380
G1 X110.574 Y123.656 E0.23591 F1380
G1 X110.923 Y124.005 E0.23609 F1380
G1 X110.574 Y124.178 E0.23624 F1380
G1 X110.923 Y124.527 E0.23642 F1380
G1 X110.574 Y124.700 E0.23657 F1380
G1 X110.923 Y125.049 E0.23675 F1380
G1 X110.574 Y125.222 E0.23690 F1380
G1 X110.923 Y125.571 E0.23709 F1380
G1 X110.574 Y125.744 E0.23723 F1380
G1 X110.923 Y126.093 E0.23742 F1380
G1 X110.574 Y126.266 E0.23757 F1380
