; generated by Slic3r 1.0.1 on 2023-03-10 at 02:23:50

; layer_height = 0.2
; perimeters = 2
; top_solid_layers = 2
; bottom_solid_layers = 2
; fill_density = 0.9
; perimeter_speed = 23
; infill_speed = 23
; travel_speed = 200
; nozzle_diameter = 0.254
; filament_diameter = 1
; extrusion_multiplier = 0.004
; perimeters extrusion width = 0.25mm
; infill extrusion width = 0.27mm
; solid infill extrusion width = 0.27mm
; top infill extrusion width = 0.27mm
; first layer extrusion width = 0.40mm

G21 ; set units to millimeters
M104 S220 ; set temperature
G21 ; set units to millimeters
M302 S0
M140 S0 ; kill bed temperature
G28 ;home all axis
G1 Z100 F2000 ; lift nozzle
G1 X100 F2000
G1 Y170 F2000
G1 E0.6 F0.5
G4 P30000 ; delay 30 seconds
G1 X100 F2000
G1 Y100 F2000
M92 E3720
M203 E0.425 ; 200x retraction speed in mm/sec
M107 ; turns fan off
G90 ; use absolute coordinates
G92 E0
M82 ; use absolute distances for extrusion
M109 S220 ; wait for temperature to be reached
G90 ; use absolute coordinates
G92 E0
M82 ; use absolute distances for extrusion
M106 S153
G1 Z15.700 F12000.000
G1 F60.000 E-0.17000
G92 E0
G1 X120.831 Y68.419 F12000.000
G1 E0.17000 F60.000
G1 X134.494 Y68.419 E0.17514 F1380
G1 X134.494 Y68.870 E0.17531
G1 X134.551 Y69.603 E0.17559
G1 X134.732 Y70.354 E0.17588
G1 X135.027 Y71.068 E0.17617
G1 X135.431 Y71.726 E0.17646
G1 X135.932 Y72.314 E0.17675
G1 X136.520 Y72.815 E0.17704
G1 X137.178 Y73.219 E0.17733
G1 X137.892 Y73.514 E0.17762
G1 X138.643 Y73.695 E0.17791
G1 X139.377 Y73.752 E0.17819
G1 X158.623 Y73.752 E0.18543
G1 X159.357 Y73.695 E0.18570
G1 X160.108 Y73.514 E0.18599
G1 X160.822 Y73.219 E0.18628
G1 X161.480 Y72.815 E0.18658
G1 X162.068 Y72.314 E0.18687
G1 X162.569 Y71.726 E0.18716
G1 X162.973 Y71.068 E0.18745
G1 X163.268 Y70.354 E0.18774
G1 X163.449 Y69.603 E0.18803
G1 X163.506 Y68.870 E0.18830
G1 X163.506 Y68.419 E0.18847
G1 X177.169 Y68.419 E0.19361
G1 X177.169 Y81.581 E0.19856
G1 X163.506 Y81.581 E0.20370
G1 X163.506 Y81.130 E0.20387
G1 X163.449 Y80.397 E0.20415
G1 X163.268 Y79.646 E0.20444
G1 X162.973 Y78.932 E0.20473
G1 X162.569 Y78.274 E0.20502
G1 X162.068 Y77.686 E0.20531
G1 X161.480 Y77.185 E0.20560
G1 X160.822 Y76.781 E0.20589
G1 X160.108 Y76.486 E0.20618
G1 X159.357 Y76.305 E0.20647
G1 X158.623 Y76.248 E0.20675
G1 X139.377 Y76.248 E0.21399
G1 X138.643 Y76.305 E0.21427
G1 X137.892 Y76.486 E0.21456
G1 X137.178 Y76.781 E0.21485
G1 X136.520 Y77.185 E0.21514
G1 X135.932 Y77.686 E0.21543
G1 X135.431 Y78.274 E0.21572
G1 X135.027 Y78.932 E0.21601
G1 X134.732 Y79.646 E0.21630
G1 X134.551 Y80.396 E0.21659
G1 X134.494 Y81.130 E0.21687
G1 X134.494 Y81.581 E0.21704
G1 X120.831 Y81.581 E0.22218
G1 X120.831 Y68.474 E0.22711
G1 X121.201 Y68.788 F12000.000
G1 X134.117 Y68.788 E0.23197 F1380
G1 X134.186 Y69.661 E0.23230
G1 X134.379 Y70.469 E0.23261
G1 X134.697 Y71.236 E0.23292
G1 X135.131 Y71.944 E0.23323
G1 X135.670 Y72.576 E0.23355
G1 X136.302 Y73.115 E0.23386
G1 X137.010 Y73.549 E0.23417
G1 X137.777 Y73.867 E0.23448
G1 X138.585 Y74.061 E0.23480
G1 X139.362 Y74.122 E0.23509
G1 X158.638 Y74.122 E0.24234
G1 X159.415 Y74.061 E0.24263
G1 X160.223 Y73.867 E0.24295
G1 X160.990 Y73.549 E0.24326
G1 X161.698 Y73.115 E0.24357
G1 X162.330 Y72.576 E0.24388
G1 X162.869 Y71.944 E0.24420
G1 X163.303 Y71.236 E0.24451
G1 X163.621 Y70.469 E0.24482
G1 X163.814 Y69.661 E0.24513
G1 X163.883 Y68.788 E0.24546
G1 X176.799 Y68.788 E0.25032
G1 X176.799 Y81.212 E0.25499
G1 X163.883 Y81.212 E0.25985
G1 X163.814 Y80.339 E0.26018
G1 X163.621 Y79.531 E0.26049
G1 X163.303 Y78.764 E0.26081
G1 X162.869 Y78.056 E0.26112
G1 X162.330 Y77.424 E0.26143
G1 X161.698 Y76.885 E0.26174
G1 X160.990 Y76.451 E0.26206
G1 X160.223 Y76.133 E0.26237
G1 X159.415 Y75.939 E0.26268
G1 X158.638 Y75.878 E0.26297
G1 X139.362 Y75.878 E0.27023
G1 X138.585 Y75.939 E0.27052
G1 X137.777 Y76.133 E0.27083
G1 X137.010 Y76.451 E0.27114
G1 X136.302 Y76.885 E0.27146
G1 X135.670 Y77.424 E0.27177
G1 X135.131 Y78.056 E0.27208
G1 X134.697 Y78.764 E0.27239
G1 X134.379 Y79.531 E0.27271
G1 X134.186 Y80.339 E0.27302
G1 X134.117 Y81.212 E0.27335
G1 X121.201 Y81.212 E0.27821
G1 X121.201 Y68.844 E0.28286
G1 X121.570 Y69.157 F12000.000
G1 X133.775 Y69.157 E0.28745 F1380
G1 X133.820 Y69.719 E0.28766
G1 X134.027 Y70.583 E0.28800
G1 X134.367 Y71.404 E0.28833
G1 X134.831 Y72.162 E0.28866
G1 X135.409 Y72.838 E0.28900
G1 X136.084 Y73.415 E0.28933
G1 X136.842 Y73.879 E0.28967
G1 X137.663 Y74.219 E0.29000
G1 X138.527 Y74.426 E0.29034
G1 X139.347 Y74.491 E0.29065
G1 X158.653 Y74.491 E0.29791
G1 X159.473 Y74.426 E0.29822
G1 X160.337 Y74.219 E0.29855
G1 X161.158 Y73.879 E0.29889
G1 X161.916 Y73.415 E0.29922
G1 X162.591 Y72.838 E0.29955
G1 X163.169 Y72.162 E0.29989
G1 X163.633 Y71.404 E0.30022
G1 X163.973 Y70.583 E0.30056
G1 X164.180 Y69.719 E0.30089
G1 X164.225 Y69.157 E0.30110
G1 X176.430 Y69.157 E0.30569
G1 X176.430 Y80.843 E0.31009
G1 X164.225 Y80.843 E0.31468
G1 X164.180 Y80.281 E0.31489
G1 X163.973 Y79.417 E0.31523
G1 X163.633 Y78.596 E0.31556
G1 X163.169 Y77.838 E0.31590
G1 X162.591 Y77.162 E0.31623
G1 X161.916 Y76.585 E0.31656
G1 X161.158 Y76.121 E0.31690
G1 X160.337 Y75.781 E0.31723
G1 X159.473 Y75.574 E0.31757
G1 X158.653 Y75.509 E0.31788
G1 X139.348 Y75.509 E0.32514
G1 X138.527 Y75.574 E0.32545
G1 X137.663 Y75.781 E0.32578
G1 X136.842 Y76.121 E0.32612
G1 X136.084 Y76.585 E0.32645
G1 X135.409 Y77.162 E0.32678
G1 X134.831 Y77.838 E0.32712
G1 X134.367 Y78.596 E0.32745
G1 X134.027 Y79.417 E0.32779
G1 X133.820 Y80.281 E0.32812
G1 X133.775 Y80.843 E0.32833
G1 X121.570 Y80.843 E0.33293
G1 X121.570 Y69.213 E0.33730
G1 X121.570 Y80.843 F9600.000 E0.26825
G1 X133.775 Y80.843 F9600.000 E0.19578
G1 X133.820 Y80.281 F9600.000 E0.19243
G1 X134.027 Y79.417 F9600.000 E0.18716
G1 X134.367 Y78.596 F9600.000 E0.18188
G1 X134.831 Y77.838 F9600.000 E0.17661
G1 X134.920 Y77.735 F9600.000 E0.17580
G1 F60.000 E0.16730
G92 E0
G1 X158.721 Y74.856 F12000.000
G1 E0.17000 F60.000
G1 X159.531 Y74.792 E0.17031 F1380
G1 X160.452 Y74.571 E0.17066
G1 X161.326 Y74.209 E0.17102
G1 X162.134 Y73.714 E0.17137
G1 X162.853 Y73.100 E0.17173
G1 X163.468 Y72.380 E0.17209
G1 X163.963 Y71.572 E0.17244
G1 X164.325 Y70.698 E0.17280
G1 X164.546 Y69.777 E0.17315
G1 X164.566 Y69.527 E0.17325
G1 X176.061 Y69.527 E0.17757
G1 X176.061 Y80.473 E0.18169
G1 X164.566 Y80.473 E0.18601
G1 X164.546 Y80.223 E0.18611
G1 X164.325 Y79.302 E0.18647
G1 X163.963 Y78.427 E0.18682
G1 X163.468 Y77.620 E0.18718
G1 X162.853 Y76.900 E0.18753
G1 X162.134 Y76.286 E0.18789
G1 X161.326 Y75.791 E0.18825
G1 X160.452 Y75.429 E0.18860
G1 X159.531 Y75.208 E0.18896
G1 X158.721 Y75.144 E0.18926
G1 X158.721 Y74.911 E0.18935
G1 X160.382 Y75.000 F12000.000
G1 X161.495 Y74.539 E0.18980 F1380
G1 X162.351 Y74.014 E0.19018
G1 X163.115 Y73.361 E0.19056
G1 X163.768 Y72.597 E0.19094
G1 X164.293 Y71.741 E0.19132
G1 X164.677 Y70.812 E0.19169
G1 X164.897 Y69.896 E0.19205
G1 X175.691 Y69.896 E0.19611
G1 X175.691 Y80.104 E0.19995
G1 X164.897 Y80.104 E0.20401
G1 X164.677 Y79.188 E0.20436
G1 X164.293 Y78.259 E0.20474
G1 X163.768 Y77.403 E0.20512
G1 X163.115 Y76.638 E0.20550
G1 X162.351 Y75.986 E0.20588
G1 X161.495 Y75.461 E0.20625
G1 X160.433 Y75.021 E0.20669
G1 X161.449 Y75.000 F12000.000
G1 X162.569 Y74.314 E0.20718 F1380
G1 X163.377 Y73.623 E0.20758
G1 X164.068 Y72.815 E0.20798
G1 X164.623 Y71.909 E0.20838
G1 X165.030 Y70.927 E0.20878
G1 X165.189 Y70.265 E0.20904
G1 X175.322 Y70.265 E0.21285
G1 X175.322 Y79.735 E0.21641
G1 X165.189 Y79.735 E0.22022
G1 X165.030 Y79.073 E0.22048
G1 X164.623 Y78.091 E0.22088
G1 X164.068 Y77.185 E0.22128
G1 X163.377 Y76.377 E0.22168
G1 X162.569 Y75.686 E0.22208
G1 X161.496 Y75.029 E0.22255
G1 X162.156 Y75.000 F12000.000
G1 X162.787 Y74.613 E0.22283 F1380
G1 X163.639 Y73.885 E0.22325
G1 X164.367 Y73.033 E0.22367
G1 X164.953 Y72.077 E0.22409
G1 X165.382 Y71.041 E0.22451
G1 X165.480 Y70.635 E0.22467
G1 X174.953 Y70.635 E0.22824
G1 X174.953 Y79.365 E0.23152
G1 X165.480 Y79.365 E0.23508
G1 X165.382 Y78.959 E0.23524
G1 X164.953 Y77.923 E0.23566
G1 X164.367 Y76.967 E0.23608
G1 X163.639 Y76.115 E0.23651
G1 X162.787 Y75.387 E0.23693
G1 X162.203 Y75.029 E0.23718
G1 X162.903 Y75.000 F12000.000
G1 X163.901 Y74.147 E0.23768 F1380
G1 X164.667 Y73.251 E0.23812
G1 X165.283 Y72.245 E0.23857
G1 X165.734 Y71.156 E0.23901
G1 X165.771 Y71.004 E0.23907
G1 X174.583 Y71.004 E0.24238
G1 X174.583 Y78.996 E0.24539
G1 X165.771 Y78.996 E0.24870
G1 X165.734 Y78.844 E0.24876
G1 X165.283 Y77.755 E0.24921
G1 X164.667 Y76.749 E0.24965
G1 X163.901 Y75.853 E0.25009
G1 X162.945 Y75.036 E0.25057
G1 X163.471 Y75.000 F12000.000
G1 X164.163 Y74.409 E0.25091 F1380
G1 X164.967 Y73.468 E0.25137
G1 X165.613 Y72.413 E0.25184
G1 X166.044 Y71.373 E0.25226
G1 X174.214 Y71.373 E0.25534
G1 X174.214 Y78.627 E0.25806
G1 X166.044 Y78.627 E0.26114
G1 X165.613 Y77.587 E0.26156
G1 X164.967 Y76.532 E0.26203
G1 X164.163 Y75.591 E0.26249
G1 X163.514 Y75.036 E0.26281
G1 X164.040 Y75.000 F12000.000
G1 X164.425 Y74.671 E0.26300 F1380
G1 X165.266 Y73.686 E0.26349
G1 X165.943 Y72.582 E0.26398
G1 X166.291 Y71.743 E0.26432
G1 X173.845 Y71.743 E0.26716
G1 X173.845 Y78.257 E0.26961
G1 X166.291 Y78.257 E0.27245
G1 X165.943 Y77.418 E0.27280
G1 X165.266 Y76.314 E0.27328
G1 X164.425 Y75.329 E0.27377
G1 X164.082 Y75.036 E0.27394
G1 X164.630 Y75.000 F12000.000
G1 X165.566 Y73.904 E0.27448 F1380
G1 X166.273 Y72.750 E0.27499
G1 X166.538 Y72.112 E0.27525
G1 X173.475 Y72.112 E0.27786
G1 X173.475 Y77.888 E0.28003
G1 X166.538 Y77.888 E0.28264
G1 X166.273 Y77.250 E0.28290
G1 X165.566 Y76.096 E0.28341
G1 X164.666 Y75.042 E0.28393
G1 X165.116 Y75.000 F12000.000
G1 X165.866 Y74.122 E0.28437 F1380
G1 X166.603 Y72.918 E0.28490
G1 X166.784 Y72.481 E0.28508
G1 X173.106 Y72.481 E0.28746
G1 X173.106 Y77.519 E0.28935
G1 X166.784 Y77.519 E0.29173
G1 X166.603 Y77.082 E0.29191
G1 X165.866 Y75.878 E0.29244
G1 X165.152 Y75.042 E0.29285
G1 X165.601 Y75.000 F12000.000
G1 X166.165 Y74.339 E0.29318 F1380
G1 X166.933 Y73.086 E0.29373
G1 X167.031 Y72.850 E0.29383
G1 X172.737 Y72.850 E0.29597
G1 X172.737 Y77.149 E0.29759
G1 X167.031 Y77.149 E0.29974
G1 X166.933 Y76.914 E0.29983
G1 X166.165 Y75.661 E0.30039
G1 X165.637 Y75.042 E0.30069
G1 X166.087 Y75.000 F12000.000
G1 X166.465 Y74.557 E0.30091 F1380
G1 X167.285 Y73.220 E0.30150
G1 X172.368 Y73.220 E0.30341
G1 X172.368 Y76.780 E0.30475
G1 X167.285 Y76.780 E0.30666
G1 X166.465 Y75.443 E0.30725
G1 X166.123 Y75.042 E0.30745
G1 X166.573 Y75.000 F12000.000
G1 X166.765 Y74.775 E0.30756 F1380
G1 X167.491 Y73.589 E0.30809
G1 X171.998 Y73.589 E0.30978
G1 X171.998 Y76.411 E0.31084
G1 X167.491 Y76.411 E0.31254
G1 X166.765 Y75.225 E0.31306
G1 X166.609 Y75.042 E0.31315
G1 X167.060 Y75.000 F12000.000
G1 X167.698 Y73.958 E0.31361 F1380
G1 X171.629 Y73.958 E0.31509
G1 X171.629 Y76.042 E0.31587
G1 X167.698 Y76.042 E0.31735
G1 X167.089 Y75.047 E0.31779
G1 X167.493 Y75.000 F12000.000
G1 X167.905 Y74.328 E0.31809 F1380
G1 X171.260 Y74.328 E0.31935
G1 X171.260 Y75.672 E0.31986
G1 X167.905 Y75.672 E0.32112
G1 X167.522 Y75.047 E0.32139
G1 X167.926 Y75.000 F12000.000
G1 X168.112 Y74.697 E0.32153 F1380
G1 X170.890 Y74.697 E0.32257
G1 X170.890 Y75.303 E0.32280
G1 X168.112 Y75.303 E0.32385
G1 X167.955 Y75.047 E0.32396
G1 X139.279 Y74.856 F12000.000
G1 X139.279 Y75.144 E0.32407 F1380
G1 X138.469 Y75.208 E0.32437
G1 X137.548 Y75.429 E0.32473
G1 X136.674 Y75.791 E0.32508
G1 X135.866 Y76.286 E0.32544
G1 X135.147 Y76.900 E0.32580
G1 X134.532 Y77.620 E0.32615
G1 X134.037 Y78.427 E0.32651
G1 X133.675 Y79.302 E0.32686
G1 X133.454 Y80.223 E0.32722
G1 X133.434 Y80.473 E0.32732
G1 X121.939 Y80.473 E0.33164
G1 X121.939 Y69.527 E0.33576
G1 X133.434 Y69.527 E0.34008
G1 X133.454 Y69.777 E0.34018
G1 X133.675 Y70.698 E0.34053
G1 X134.037 Y71.572 E0.34089
G1 X134.532 Y72.380 E0.34124
G1 X135.147 Y73.100 E0.34160
G1 X135.866 Y73.714 E0.34196
G1 X136.674 Y74.209 E0.34231
G1 X137.548 Y74.571 E0.34267
G1 X138.469 Y74.792 E0.34302
G1 X139.224 Y74.852 E0.34331
G1 X137.618 Y75.000 F12000.000
G1 X136.505 Y75.461 E0.34376 F1380
G1 X135.649 Y75.986 E0.34414
G1 X134.885 Y76.638 E0.34452
G1 X134.232 Y77.403 E0.34490
G1 X133.707 Y78.259 E0.34527
G1 X133.323 Y79.188 E0.34565
G1 X133.103 Y80.104 E0.34601
G1 X122.309 Y80.104 E0.35007
G1 X122.309 Y69.896 E0.35391
G1 X133.103 Y69.896 E0.35797
G1 X133.323 Y70.812 E0.35832
G1 X133.707 Y71.741 E0.35870
G1 X134.232 Y72.597 E0.35908
G1 X134.885 Y73.361 E0.35946
G1 X135.649 Y74.014 E0.35983
G1 X136.505 Y74.539 E0.36021
G1 X137.567 Y74.979 E0.36064
G1 X136.551 Y75.000 F12000.000
G1 X135.431 Y75.686 E0.36114 F1380
G1 X134.623 Y76.377 E0.36154
G1 X133.932 Y77.185 E0.36194
G1 X133.377 Y78.091 E0.36234
G1 X132.970 Y79.073 E0.36274
G1 X132.811 Y79.735 E0.36299
G1 X122.678 Y79.735 E0.36680
G1 X122.678 Y70.265 E0.37037
G1 X132.811 Y70.265 E0.37418
G1 X132.970 Y70.927 E0.37443
G1 X133.377 Y71.909 E0.37483
G1 X133.932 Y72.815 E0.37523
G1 X134.623 Y73.623 E0.37563
G1 X135.431 Y74.314 E0.37603
G1 X136.504 Y74.971 E0.37651
G1 X135.844 Y75.000 F12000.000
G1 X135.213 Y75.386 E0.37679 F1380
G1 X134.361 Y76.115 E0.37721
G1 X133.633 Y76.967 E0.37763
G1 X133.047 Y77.923 E0.37805
G1 X132.618 Y78.959 E0.37847
G1 X132.520 Y79.365 E0.37863
G1 X123.047 Y79.365 E0.38219
G1 X123.047 Y70.635 E0.38548
G1 X132.520 Y70.635 E0.38904
G1 X132.618 Y71.041 E0.38920
G1 X133.047 Y72.077 E0.38962
G1 X133.633 Y73.033 E0.39004
G1 X134.361 Y73.885 E0.39046
G1 X135.213 Y74.613 E0.39088
G1 X135.797 Y74.971 E0.39114
G1 X135.097 Y75.000 F12000.000
G1 X134.099 Y75.853 E0.39164 F1380
G1 X133.333 Y76.749 E0.39208
G1 X132.717 Y77.755 E0.39252
G1 X132.266 Y78.844 E0.39297
G1 X132.229 Y78.996 E0.39303
G1 X123.417 Y78.996 E0.39634
G1 X123.417 Y71.004 E0.39935
G1 X132.229 Y71.004 E0.40266
G1 X132.266 Y71.156 E0.40272
G1 X132.717 Y72.245 E0.40316
G1 X133.333 Y73.251 E0.40361
G1 X134.099 Y74.147 E0.40405
G1 X135.055 Y74.964 E0.40452
G1 X134.529 Y75.000 F12000.000
G1 X133.837 Y75.591 E0.40487 F1380
G1 X133.033 Y76.532 E0.40533
G1 X132.387 Y77.587 E0.40580
G1 X131.956 Y78.627 E0.40622
G1 X123.786 Y78.627 E0.40929
G1 X123.786 Y71.373 E0.41202
G1 X131.956 Y71.373 E0.41510
G1 X132.387 Y72.413 E0.41552
G1 X133.033 Y73.468 E0.41598
G1 X133.837 Y74.409 E0.41645
G1 X134.486 Y74.964 E0.41677
G1 X133.960 Y75.000 F12000.000
G1 X133.575 Y75.329 E0.41696 F1380
G1 X132.734 Y76.314 E0.41745
G1 X132.057 Y77.418 E0.41794
G1 X131.709 Y78.257 E0.41828
G1 X124.155 Y78.257 E0.42112
G1 X124.155 Y71.743 E0.42357
G1 X131.709 Y71.743 E0.42641
G1 X132.057 Y72.582 E0.42675
G1 X132.734 Y73.686 E0.42724
G1 X133.575 Y74.671 E0.42773
G1 X133.918 Y74.964 E0.42790
G1 X133.370 Y75.000 F12000.000
G1 X132.434 Y76.096 E0.42844 F1380
G1 X131.727 Y77.250 E0.42895
G1 X131.462 Y77.888 E0.42921
G1 X124.524 Y77.888 E0.43182
G1 X124.524 Y72.112 E0.43399
G1 X131.462 Y72.112 E0.43660
G1 X131.727 Y72.750 E0.43686
G1 X132.434 Y73.904 E0.43737
G1 X133.334 Y74.958 E0.43789
G1 X132.884 Y75.000 F12000.000
G1 X132.134 Y75.878 E0.43833 F1380
G1 X131.397 Y77.082 E0.43886
G1 X131.216 Y77.519 E0.43904
G1 X124.894 Y77.519 E0.44141
G1 X124.894 Y72.481 E0.44331
G1 X131.216 Y72.481 E0.44569
G1 X131.397 Y72.918 E0.44586
G1 X132.134 Y74.122 E0.44640
G1 X132.848 Y74.958 E0.44681
G1 X132.399 Y75.000 F12000.000
G1 X131.835 Y75.661 E0.44714 F1380
G1 X131.067 Y76.914 E0.44769
G1 X130.969 Y77.150 E0.44778
G1 X125.263 Y77.150 E0.44993
G1 X125.263 Y72.850 E0.45155
G1 X130.969 Y72.850 E0.45369
G1 X131.066 Y73.086 E0.45379
G1 X131.835 Y74.339 E0.45434
G1 X132.363 Y74.958 E0.45465
G1 X131.913 Y75.000 F12000.000
G1 X131.535 Y75.443 E0.45487 F1380
G1 X130.715 Y76.780 E0.45546
G1 X125.632 Y76.780 E0.45737
